X: 106202
T: PRINCE CHARLIE
Q: "Reel."
R:  Reel.
%R: reel
B: James Kerr "Merry Melodies" v.1 p.6 s.2 #2
Z: 2017 John Chambers <jc:trillian.mit.edu>
M: C
L: 1/8
K: Em
F |\
E2EF B2B^c | d2(AG) FDDF |\
E2EF B2B^c | dBAF GEEF |\
E2EF B2B^c | d2(AG) FDDF |\
EFGA B2(Bg) | fdBd e2-e |]
B |\
eBef geBg | fbag fddf |\
eBef geBg | bgaf e2(eB) |\
eBef geBg | fdAG FEDf |\
geBg AfGe | FdAF E2-E |]

%%sep 1 1 500
%%sep 1 1 500

